remix/Device/barcode-box-fill.svg

<svg viewBox="0 0 24 24" fill="currentColor" xmlns="http://www.w3.org/2000/svg"><path d="M3 3H21C21.5523 3 22 3.44772 22 4V20C22 20.5523 21.5523 21 21 21H3C2.44772 21 2 20.5523 2 20V4C2 3.44772 2.44772 3 3 3ZM6 7V17H9V7H6ZM10 7V17H12V7H10ZM13 7V17H14V7H13ZM15 7V17H18V7H15Z"/></svg>

<svg viewBox="0 0 24 24" xmlns="http://www.w3.org/2000/svg"><path fill="none" d="M0 0h24v24H0Z"/><path d="M3 3h18v0c.55 0 1 .44 1 1v16 0c0 .55-.45 1-1 1H3v0c-.56 0-1-.45-1-1V4v0c0-.56.44-1 1-1Zm3 4v10h3V7H6Zm4 0v10h2V7h-2Zm3 0v10h1V7h-1Zm2 0v10h3V7h-3Z"/></svg>
